X:1
T:5 Poems, Op.19
T:In der Ferne
T:3. In der Ferne
T:Johannes Brahms
T:Ludwig Uhland
T:5 Poems, Op.19
T:OpenScore (CC0)
T:OpenScore (CC0)
T:OpenScore (CC0)
C:Johannes Brahms
Z:Ludwig Uhland
Z:OpenScore (CC0)
%%score 1 { 2 | ( 3 4 ) }
L:1/8
Q:1/4=130
M:3/4
K:F
V:1 treble nm="Singstimme\nVoice"
V:2 treble nm="Pianoforte"
V:3 bass 
V:4 bass 
V:1
!p!"^L'istesso tempo" D2 | (D2 A2) d2 | A2 A2 e2 | A4 e2 | A4 d2 | d4 d2 | d2 c2 A2 | G4 G2 | z6 | %9
w: Will|ru- * hen|un- ter den|Bäu- men|hier, die|Vög- lein|hör ich so|ger- ne||
 z6 | z6 | z6 | z2 z2!p! E2 ||[K:D] F2 E2 D2 | (F2 E2) D2 | (A2"^cresc." G2) F2 | B4 G2 | %17
w: |||Wie|sin- get ihr|so * zum|Her- * zen|mir, wie|
 B2!<(! A2 G2 | (B2 A2)!<)! G2 |!f! e6 | z2 z2 c2 | (e2 d2) c2 | B2!>(! A2 G2 | F4 E2!>)! | %24
w: singt ihr zum|Her- * zen|mir?|Von|uns- * rer|Lie- be, was|wis- set|
 D4!p! F2 | (G2 E2) F2 | (G2 E2) F2 | G4 G2 | z2 z2 E2 | (A2 F2) G2 | (A2 D2) E2 | (F4 E2) | %32
w: ihr in|die- * ser|wei- * ten|Fer- ne,|in|die- * ser|wei- * ten|Fer- *|
 F2 z2 z2 | z6 | z6 | z6 | z2 z2!p! A2 || (D2 A2) d2 | A2 A2 e2 | A4 e2 | A4 d2 | d2 d2 d2 | %42
w: ne?||||Will|ru- * hen|hier an des|Ba- ches|Rand, wo|duf- ti- ge|
 (d2 c2) A2 | (A4 ^G2) | A4 z2 | z6 | z2 z2!p! E2 | (F2 E2) D2 | F2 E2 D2 | (A2 G2) F2 | B4 G2 | %51
w: Blüm- * lein|sprie- *|ssen.||Wer|hat * euch|Blüm- lein hie-|her * ge-|standt? wer|
"^cresc." B2 A2 G2 | (B2 A2) G2 |!f! e6 | z2 z2 c2 | (e2 d2) c2 |!>(! B2 A2 G2!>)! |"^dim." F4 E2 | %58
w: hat euch hie-|her * ge-|standt?|Seid|ihr * ein|herz- li- ches|Lie- bes-|
 D2!p! F2 F2 | G2 E2 F2 | (G2 E2) F2 | G4 G2 | z2 F2 E2 | A2 F2 G2 | (A2 D2)"^dim." E2 | (F4 E2) | %66
w: pfand aus der|Fer- ne von|mei- * ner|Sü- ssen?|aus der|Fer- ne von|mei- * ner|Sü- *|
 F4 z2 | z6 | z6 | z6 | z6 | z6 | z2 !fermata!z2 |] %73
w: ssen?|||||||
V:2
 z2 |!p! z2 z A,DA | (z2 z A,EA) | z2 z A,EA | z2 z A,DA | z2 z DBd | z2 z CAc | z2 z CEG | %8
 z2 z2 ([Ge]2 | [eg]4) ([Ge]2 | [dg]4) ([Ge]2 |!>(! [^cg]4) ([G,E]2 | [^CG]4)!p! [G,E]2!>)! || %13
[K:D] z ([A,F]2 [G,E]2 [F,D]) | z ([A,F]2 [G,E]2 [F,D]) | z ([FA]2"_cresc." [EG]2 [DF]) | %16
 z ([DB]2 [=CA]2 [B,G]) |!<(! z ([GB]2 [FA]2 [EG] | z [GB]2 [FA]2 [EG])!<)! | z ([Ge]2 [Fd]2 [Ec] | %20
 z [Ge]2 [Fd]2 [Ec]) | z ([Ge]2 [Fd]2 [Ec] | z [DB]2!>(! [CA]2 [B,G]) | %23
 z ([CF]2 [F,C]2 [G,E])!>)! | z ([F,D]2 [F,D]2 [DF]) | z ([B,G]2 [G,E]2 [A,F] | %26
 z [B,G]2 [G,E]2 [A,F]) | z ([_B,G]2 [G,E]2 [A,F] | z [_B,G]2 [A,F]2 [G,E]) | z ([FA]2 [DF]2 [EG] | %30
 z [FA]2 [F,D]2 [A,E]) |"_dim." z ([FA]2 [DF]2 [EG] | z [FA]2 [F,D]2 [A,E]) | %33
 z [DF]- [DF]2 ([A,E]2 | [DF]4) [A,E]2- |!>(! [A,E]4 [A,E]2- | [A,E]4!>)! z2 || %37
"^dolce"!p! z2 z A,DA | z2 z A,EA | z2 z A,EA | z2 z A,DA | z2 z DEd | z2 z CEc | z2 (FBED) | %44
 z2 z C- ([CE]2 | [E=G]4)!>(! ([A,E]2 | [EG]4) [G,E]2!>)! | (3(A,FA, (3G,EG, (3F,DF, | %48
 (3A,FA, (3G,EG, (3F,DF,) | (3(FAF (3EGE (3DFD | (3DBD (3=CAC"_cresc." (3B,GB,) | %51
 (3(GBG (3FAF (3EGE | (3GBG (3FAF (3EGE) |!f! (3(GeG (3FdF (3EcE | (3GeG (3FdF (3EcE) | %55
 (3(GeG (3FdF (3EcE | (3DBD (3CAC (3B,GB,) |!>(! (3(CFC (3F,CF, (3G,EG, | %58
 (3F,DF, (3DF,D)!>)! (3(DFD | (3B,GB, (3G,EG, (3A,FA,) | (3(B,GB, (3G,EG, (3A,FA,) | %61
 (3(_B,GB, (3G,EG, (3A,FA, | (3_B,GB, (3A,FA, (3G,EG,) | (3(FAF (3DFD (3EGE | %64
 (3FAF (3F,DF, (3A,EA,) |"_dim." (3(FAF (3DFD (3EGE | (3FAF (3F,DF, (3A,EA,) | %67
 (3(DFD (3FDF (3A,EA,) | (3(DFD (3FDF (3A,EA,-) |!pp! [A,E]3 (A,- ([A,-F]2) | %70
!pp! [A,E]3)!>(! (A,- [A,E]2-) | [A,E]2 [DF]4- |!ppp! !fermata![DF]4!>)! |] %73
V:3
 z2 | D,,A,,F, z z2 | D,,A,,F, z G, z | D,,A,,F, z G, z | D,,A,,F, z z2 | E,,B,,G, z z2 | %6
 F,,C,A, z z2 | C,E,G, z z2 | (C,G,CE) z2 | (C,G,CE) z2 | (_B,,G,_B,D) z2 | (A,,G,A,^C) z2 | %12
 (A,,E,A,^C) z2 ||[K:D] (D,,2 A,,2 D,2) | (D,,2 A,,2 D,2) | (D,,2 A,,2 D,2) | (G,,,2 G,,2 D,2) | %17
 (E,,2 B,,2 G,2) | (E,,2 B,,2 G,2) | ^C,,2 C,2 G,2 | C,,2 C,2 G,2 | A,,,2 A,,2 G,2 | %22
 A,,,2 A,,2 E,2 | ^A,,,2 ^A,,2 C,2 |!p! B,,,2 B,,2 D,2 | E,,2 B,,2 E,2 | D,,2 B,,2 E,2 | %27
 C,,2 _B,,2 E,2 | A,,,2 A,,2 C,2 | (D,,2 A,,2 D,2) | (D,,2 A,,2 D,2) | (D,,2 A,,2 D,2) | %32
 (D,,2 A,,2 D,2) | (D,,2 A,,4) | (D,,2 A,,4) | ((D,,2 A,,4)) | (D,,2 A,,4) || D,,A,,F, z z2 | %38
 D,,A,,F, z G, z | D,,A,,F, z G, z | D,,A,,F, z z2 | ^G,,E,B, z z2 | A,,E,A, z z2 | %43
 (D,A,) z2 [E,^G,] z | (A,,E,A,) z z2 | (A,,,E,,A,,C,) z2 | (A,,,E,,A,,C,) z2 | %47
!p! (D,,2 A,,2 D,2) | (D,,2 A,,2 D,2) | (D,,2 A,,2 D,2) | (G,,,2 G,,2 D,2) | (E,,2 B,,2 E,2) | %52
 (E,,2 B,,2 E,2) | (^C,,2 C,2 G,2) | (C,,2 C,2 G,2) | (A,,,2 A,,2 G,2) | (A,,,2 A,,2 E,2) | %57
 (^A,,,2 ^A,,2 C,2) | (B,,,2 B,,2!p! D,2) | (E,,2 B,,2 E,2) | (D,,2 B,,2 E,2) | (C,,2 _B,,2 E,2) | %62
 (A,,,2 A,,2 C,2) | (D,,2 A,,2 D,2) | (D,,2 A,,2 D,2) | (D,,2 A,,2 D,2) | (D,,2 A,,2 D,2) | %67
 (D,,2 A,,4) | (D,,2 A,,4) | (D,,2 A,,4) | (D,,2 A,,4-) | [D,,A,,]6- | !fermata![D,,A,,]4 |] %73
V:4
 x2 | x6 | x6 | x6 | x6 | x6 | x6 | x6 | x6 | x6 | x6 | x6 | x6 ||[K:D] x6 | x6 | x6 | x6 | x6 | %18
 x6 | x6 | x6 | x6 | x6 | x6 | x6 | x6 | x6 | x6 | x6 | x6 | x6 | x6 | x6 | D,,6 | D,,6 | D,,6 | %36
 D,,6 || x6 | x6 | x6 | x6 | x6 | x6 | x6 | x6 | x6 | x6 | x6 | x6 | x6 | x6 | x6 | x6 | x6 | x6 | %55
 x6 | x6 | x6 | x6 | x6 | x6 | x6 | x6 | x6 | x6 | x6 | x6 | D,,6 | D,,6 | D,,6 | D,,6- | x6 | %72
 x4 |] %73

